assets/Skateboard/Flat/skateboard_flat.svg

<svg width="32" height="32" viewBox="0 0 32 32" fill="none" xmlns="http://www.w3.org/2000/svg">
<path d="M26.0131 16.0341C26.0131 17.1386 25.1176 18.0341 24.0131 18.0341C22.9085 18.0341 22.0131 17.1386 22.0131 16.0341C22.0131 14.9295 22.9085 14.0341 24.0131 14.0341C25.1176 14.0341 26.0131 14.9295 26.0131 16.0341ZM16.0331 26.0341C16.0331 27.1386 15.1377 28.0341 14.0331 28.0341C12.9285 28.0341 12.0331 27.1386 12.0331 26.0341C12.0331 24.9295 12.9285 24.0341 14.0331 24.0341C15.1377 24.0341 16.0331 24.9295 16.0331 26.0341Z" fill="#CA0B4A"/>
<path d="M27.0331 3.03398C26.3031 2.56398 25.3831 2.30398 25.2531 2.26398C23.4631 1.75398 22.4031 3.55398 21.5731 5.28398C21.1031 6.25398 20.4731 7.15398 19.6931 7.94398L7.30307 20.494C6.44307 21.364 5.43308 22.064 4.34308 22.574C3.17308 23.114 1.03308 25.034 1.03308 25.034V25.584C1.03308 27.034 1.74307 28.414 2.97307 29.194C3.72307 29.664 4.72308 30.034 6.03308 30.034L7.03308 30.014C9.61308 29.914 11.9531 28.834 13.7731 26.994L25.8631 14.724C27.7931 12.764 29.0331 9.78398 29.0331 7.03398C29.0331 5.79398 28.8231 4.20398 27.0331 3.03398Z" fill="#F3C07B"/>
<path d="M25.4131 2.30401C23.5131 1.50401 21.1531 2.33401 20.2531 4.19401C19.7831 5.16401 19.1231 5.86401 18.3431 6.65401L5.99307 18.964C5.13307 19.834 4.66308 20.334 3.56308 20.834C1.52308 21.754 0.833082 23.454 1.03308 25.044C1.28308 27.074 3.59308 29.114 6.03308 29.014L6.50307 29.024C9.08307 28.924 11.1031 28.234 12.9231 26.394L25.1131 13.664C27.0831 11.664 28.1331 8.94401 28.0231 6.14401C27.9531 4.31401 26.8131 2.90401 25.4131 2.30401Z" fill="#635994"/>
<path fill-rule="evenodd" clip-rule="evenodd" d="M20.0331 8.51404C20.0331 8.79018 19.8092 9.01404 19.5331 9.01404C19.2569 9.01404 19.0331 8.79018 19.0331 8.51404C19.0331 8.2379 19.2569 8.01404 19.5331 8.01404C19.8092 8.01404 20.0331 8.2379 20.0331 8.51404ZM23.0331 11.5341C23.0331 11.8102 22.8092 12.0341 22.5331 12.0341C22.2569 12.0341 22.0331 11.8102 22.0331 11.5341C22.0331 11.2579 22.2569 11.0341 22.5331 11.0341C22.8092 11.0341 23.0331 11.2579 23.0331 11.5341ZM17.5331 11.014C17.8092 11.014 18.0331 10.7902 18.0331 10.514C18.0331 10.2379 17.8092 10.014 17.5331 10.014C17.2569 10.014 17.0331 10.2379 17.0331 10.514C17.0331 10.7902 17.2569 11.014 17.5331 11.014ZM21.0331 13.5341C21.0331 13.8102 20.8092 14.0341 20.5331 14.0341C20.2569 14.0341 20.0331 13.8102 20.0331 13.5341C20.0331 13.2579 20.2569 13.0341 20.5331 13.0341C20.8092 13.0341 21.0331 13.2579 21.0331 13.5341ZM9.53308 19.0341C9.80922 19.0341 10.0331 18.8102 10.0331 18.5341C10.0331 18.2579 9.80922 18.0341 9.53308 18.0341C9.25694 18.0341 9.03308 18.2579 9.03308 18.5341C9.03308 18.8102 9.25694 19.0341 9.53308 19.0341ZM13.0331 21.5341C13.0331 21.8102 12.8092 22.0341 12.5331 22.0341C12.2569 22.0341 12.0331 21.8102 12.0331 21.5341C12.0331 21.2579 12.2569 21.0341 12.5331 21.0341C12.8092 21.0341 13.0331 21.2579 13.0331 21.5341ZM7.53308 21.0341C7.80922 21.0341 8.03308 20.8102 8.03308 20.5341C8.03308 20.2579 7.80922 20.0341 7.53308 20.0341C7.25694 20.0341 7.03308 20.2579 7.03308 20.5341C7.03308 20.8102 7.25694 21.0341 7.53308 21.0341ZM11.0331 23.5341C11.0331 23.8102 10.8092 24.0341 10.5331 24.0341C10.2569 24.0341 10.0331 23.8102 10.0331 23.5341C10.0331 23.2579 10.2569 23.0341 10.5331 23.0341C10.8092 23.0341 11.0331 23.2579 11.0331 23.5341Z" fill="black"/>
</svg>

<svg xmlns="http://www.w3.org/2000/svg" width="32" height="32" fill="none"><path fill="#CA0B4A" d="M26.013 16.034a2 2 0 1 1-4 0 2 2 0 0 1 4 0Zm-9.98 10a2 2 0 1 1-4 0 2 2 0 0 1 4 0Z"/><path fill="#F3C07B" d="M27.033 3.034c-.73-.47-1.65-.73-1.78-.77-1.79-.51-2.85 1.29-3.68 3.02-.47.97-1.1 1.87-1.88 2.66l-12.39 12.55c-.86.87-1.87 1.57-2.96 2.08-1.17.54-3.31 2.46-3.31 2.46v.55c0 1.45.71 2.83 1.94 3.61.75.47 1.75.84 3.06.84l1-.02c2.58-.1 4.92-1.18 6.74-3.02l12.09-12.27c1.93-1.96 3.17-4.94 3.17-7.69 0-1.24-.21-2.83-2-4Z"/><path fill="#635994" d="M25.413 2.304c-1.9-.8-4.26.03-5.16 1.89-.47.97-1.13 1.67-1.91 2.46l-12.35 12.31c-.86.87-1.33 1.37-2.43 1.87-2.04.92-2.73 2.62-2.53 4.21.25 2.03 2.56 4.07 5 3.97l.47.01c2.58-.1 4.6-.79 6.42-2.63l12.19-12.73c1.97-2 3.02-4.72 2.91-7.52a4.34 4.34 0 0 0-2.61-3.84Z"/><path fill="#000" fill-rule="evenodd" d="M20.033 8.514a.5.5 0 1 1-1 0 .5.5 0 0 1 1 0Zm3 3.02a.5.5 0 1 1-1 0 .5.5 0 0 1 1 0Zm-5.5-.52a.5.5 0 1 0 0-1 .5.5 0 0 0 0 1Zm3.5 2.52a.5.5 0 1 1-1 0 .5.5 0 0 1 1 0Zm-11.5 5.5a.5.5 0 1 0 0-1 .5.5 0 0 0 0 1Zm3.5 2.5a.5.5 0 1 1-1 0 .5.5 0 0 1 1 0Zm-5.5-.5a.5.5 0 1 0 0-1 .5.5 0 0 0 0 1Zm3.5 2.5a.5.5 0 1 1-1 0 .5.5 0 0 1 1 0Z" clip-rule="evenodd"/></svg>
